svg/emoji_u1f503.svg

<svg enable-background="new 0 0 128 128" viewBox="0 0 128 128" xmlns="http://www.w3.org/2000/svg"><linearGradient id="a" x1="64" x2="64" y1="4.25" y2="124.41" gradientUnits="userSpaceOnUse"><stop stop-color="#40C4FF" offset="0"/><stop stop-color="#2DB5F9" offset=".3517"/><stop stop-color="#0091EA" offset="1"/></linearGradient><path d="m116 124h-104c-4.42 0-8-3.58-8-8v-104c0-4.42 3.58-8 8-8h104c4.42 0 8 3.58 8 8v104c0 4.42-3.58 8-8 8z" fill="url(#a)"/><g opacity=".2"><path d="m116 7c2.76 0 5 2.24 5 5v104c0 2.76-2.24 5-5 5h-104c-2.76 0-5-2.24-5-5v-104c0-2.76 2.24-5 5-5h104m0-3h-104c-4.42 0-8 3.58-8 8v104c0 4.42 3.58 8 8 8h104c4.42 0 8-3.58 8-8v-104c0-4.42-3.58-8-8-8z" fill="#424242"/></g><g fill="#424242" opacity=".2"><path d="m40 16c1.11 0 2.21 0.46 3.01 1.37l23.99 24c2.26 2.59 0.43 6.63-3.01 6.63h-13.99c-1.1 0-2 0.9-2 2v34c0 4.82 1.51 11.55 12 12l13.32 14.78c-0.01 0.01-0.02 0.02-0.03 0.02-2.94 0.78-6.06 1.2-9.29 1.2-17.67 0-32-12.54-32-28v-34c0-1.1-0.9-2-2-2h-13.99c-3.44 0-5.27-4.05-3.01-6.63l23.99-24c0.8-0.91 1.9-1.37 3.01-1.37m0-3c-1.98 0-3.87 0.84-5.19 2.31l-24.07 24.07c-1.83 2.09-2.26 4.97-1.11 7.5s3.59 4.11 6.37 4.11h13v33c0 17.09 15.7 31 35 31 3.42 0 6.81-0.44 10.06-1.3l0.84-0.22 0.26-0.28 2.97-1.56-2.59-2.87-13.31-14.77-0.84-0.93-1.26-0.06c-6.4-0.27-9.13-2.97-9.13-9v-33h12.99c2.78 0 5.22-1.57 6.37-4.11 1.15-2.53 0.73-5.41-1.11-7.5l-0.07-0.08-0.07-0.07-23.92-23.93c-1.32-1.47-3.21-2.31-5.19-2.31z"/><path d="m64 16c17.67 0 32 12.54 32 28v34c0 1.1 0.9 2 2 2h13.99c3.44 0 5.27 4.05 3.01 6.63l-23.99 24c-0.8 0.91-1.9 1.37-3.01 1.37s-2.21-0.46-3.01-1.37l-23.99-24c-2.27-2.58-0.43-6.63 3.01-6.63h13.99c1.1 0 2-0.9 2-2v-34c0-4.82-1.51-11.55-12-12l-13.32-14.78c0.01-0.01 0.02-0.02 0.03-0.02 2.94-0.78 6.06-1.2 9.29-1.2m0-3c-3.42 0-6.81 0.44-10.06 1.3l-0.84 0.22-0.26 0.28-2.97 1.56 2.59 2.87 13.32 14.78 0.84 0.93 1.25 0.06c6.4 0.27 9.13 2.97 9.13 9v33h-12.99c-2.78 0-5.22 1.57-6.37 4.11-1.15 2.53-0.73 5.41 1.11 7.5l0.07 0.08 0.07 0.07 23.93 23.94c1.33 1.47 3.21 2.31 5.19 2.31s3.87-0.84 5.19-2.31l23.93-23.94 0.14-0.14c1.83-2.09 2.26-4.97 1.11-7.5s-3.59-4.11-6.37-4.11h-13.01v-33.01c0-17.09-15.7-31-35-31z"/></g><g fill="#FAFAFA"><path d="M67,41.37c2.26,2.59,0.43,6.63-3.01,6.63H50c-1.1,0-2,0.9-2,2v34c0,4.82,1.51,11.55,12,12 l13.32,14.78c-0.01,0.01-0.02,0.02-0.03,0.02c-2.94,0.78-6.06,1.2-9.29,1.2c-17.67,0-32-12.54-32-28V50c0-1.1-0.9-2-2-2H16.01 c-3.44,0-5.27-4.05-3.01-6.63l23.99-24c1.59-1.82,4.43-1.82,6.02,0L67,41.37z"/><path d="M61,86.63C58.73,84.05,60.57,80,64.01,80H78c1.1,0,2-0.9,2-2V44c0-4.82-1.51-11.55-12-12 L54.68,17.22c0.01-0.01,0.02-0.02,0.03-0.02C57.65,16.42,60.77,16,64,16c17.67,0,32,12.54,32,28v34c0,1.1,0.9,2,2,2h13.99 c3.44,0,5.27,4.05,3.01,6.63l-23.99,24c-1.59,1.82-4.43,1.82-6.02,0L61,86.63z"/></g></svg>

<svg width="128" height="128" style="enable-background:new 0 0 128 128;" xmlns="http://www.w3.org/2000/svg" xmlns:xlink="http://www.w3.org/1999/xlink">
  <g>
    <linearGradient id="SVGID_1_" gradientUnits="userSpaceOnUse" x1="64" x2="64" y1="4.25" y2="124.4088">
      <stop offset="0" style="stop-color:#40C4FF"/>
      <stop offset="0.3517" style="stop-color:#2DB5F9"/>
      <stop offset="1" style="stop-color:#0091EA"/>
    </linearGradient>
    <path d="M116,124H12c-4.42,0-8-3.58-8-8V12c0-4.42,3.58-8,8-8h104c4.42,0,8,3.58,8,8v104 C124,120.42,120.42,124,116,124z" style="fill:url(#SVGID_1_);"/>
    <g style="opacity:0.2;">
      <path d="M116,7c2.76,0,5,2.24,5,5v104c0,2.76-2.24,5-5,5H12c-2.76,0-5-2.24-5-5V12c0-2.76,2.24-5,5-5H116 M116,4H12c-4.42,0-8,3.58-8,8v104c0,4.42,3.58,8,8,8h104c4.42,0,8-3.58,8-8V12C124,7.58,120.42,4,116,4L116,4z" style="fill:#424242;"/>
    </g>
    <g>
      <g style="opacity:0.2;">
        <path d="M40,16c1.11,0,2.21,0.46,3.01,1.37l23.99,24c2.26,2.59,0.43,6.63-3.01,6.63H50c-1.1,0-2,0.9-2,2 v34c0,4.82,1.51,11.55,12,12l13.32,14.78c-0.01,0.01-0.02,0.02-0.03,0.02c-2.94,0.78-6.06,1.2-9.29,1.2c-17.67,0-32-12.54-32-28 V50c0-1.1-0.9-2-2-2H16.01c-3.44,0-5.27-4.05-3.01-6.63l23.99-24C37.79,16.46,38.89,16,40,16 M40,13 c-1.98,0-3.87,0.84-5.19,2.31L10.88,39.24l-0.07,0.07l-0.07,0.07c-1.83,2.09-2.26,4.97-1.11,7.5c1.15,2.53,3.59,4.11,6.37,4.11 H29v33c0,17.09,15.7,31,35,31c3.42,0,6.81-0.44,10.06-1.3l0.84-0.22l0.26-0.28l2.97-1.56l-2.59-2.87L62.23,93.99l-0.84-0.93 L60.13,93c-6.4-0.27-9.13-2.97-9.13-9V51h12.99c2.78,0,5.22-1.57,6.37-4.11c1.15-2.53,0.73-5.41-1.11-7.5l-0.07-0.08l-0.07-0.07 L45.19,15.31C43.87,13.84,41.98,13,40,13L40,13z" style="fill:#424242;"/>
        <path d="M64,16c17.67,0,32,12.54,32,28v34c0,1.1,0.9,2,2,2h13.99c3.44,0,5.27,4.05,3.01,6.63l-23.99,24 c-0.8,0.91-1.9,1.37-3.01,1.37s-2.21-0.46-3.01-1.37L61,86.63C58.73,84.05,60.57,80,64.01,80H78c1.1,0,2-0.9,2-2V44 c0-4.82-1.51-11.55-12-12L54.68,17.22c0.01-0.01,0.02-0.02,0.03-0.02C57.65,16.42,60.77,16,64,16 M64,13 c-3.42,0-6.81,0.44-10.06,1.3l-0.84,0.22l-0.26,0.28l-2.97,1.56l2.59,2.87l13.32,14.78l0.84,0.93L67.87,35 c6.4,0.27,9.13,2.97,9.13,9v33H64.01c-2.78,0-5.22,1.57-6.37,4.11c-1.15,2.53-0.73,5.41,1.11,7.5l0.07,0.08l0.07,0.07 l23.93,23.94c1.33,1.47,3.21,2.31,5.19,2.31c1.98,0,3.87-0.84,5.19-2.31l23.93-23.94l0.07-0.07l0.07-0.07 c1.83-2.09,2.26-4.97,1.11-7.5c-1.15-2.53-3.59-4.11-6.37-4.11H99V44C99,26.91,83.3,13,64,13L64,13z" style="fill:#424242;"/>
      </g>
      <g>
        <path d="M67,41.37c2.26,2.59,0.43,6.63-3.01,6.63H50c-1.1,0-2,0.9-2,2v34c0,4.82,1.51,11.55,12,12 l13.32,14.78c-0.01,0.01-0.02,0.02-0.03,0.02c-2.94,0.78-6.06,1.2-9.29,1.2c-17.67,0-32-12.54-32-28V50c0-1.1-0.9-2-2-2H16.01 c-3.44,0-5.27-4.05-3.01-6.63l23.99-24c1.59-1.82,4.43-1.82,6.02,0L67,41.37z" style="fill:#FAFAFA;"/>
        <path d="M61,86.63C58.73,84.05,60.57,80,64.01,80H78c1.1,0,2-0.9,2-2V44c0-4.82-1.51-11.55-12-12 L54.68,17.22c0.01-0.01,0.02-0.02,0.03-0.02C57.65,16.42,60.77,16,64,16c17.67,0,32,12.54,32,28v34c0,1.1,0.9,2,2,2h13.99 c3.44,0,5.27,4.05,3.01,6.63l-23.99,24c-1.59,1.82-4.43,1.82-6.02,0L61,86.63z" style="fill:#FAFAFA;"/>
      </g>
    </g>
  </g>
</svg>
